images/3234286.svg

<?xml version="1.0" encoding="UTF-8"?>
<svg xmlns="http://www.w3.org/2000/svg" xmlns:xlink="http://www.w3.org/1999/xlink" width="300pt" height="300pt" viewBox="0 0 300 300" version="1.1">
<defs>
<g>
<symbol overflow="visible" id="glyph0-0">
<path style="stroke:none;" d="M 0.453125 1.59375 L 0.453125 -6.34375 L 4.953125 -6.34375 L 4.953125 1.59375 Z M 0.953125 1.09375 L 4.453125 1.09375 L 4.453125 -5.84375 L 0.953125 -5.84375 Z M 0.953125 1.09375 "/>
</symbol>
<symbol overflow="visible" id="glyph0-1">
<path style="stroke:none;" d="M 0.890625 -6.5625 L 2.078125 -6.5625 L 4.984375 -1.078125 L 4.984375 -6.5625 L 5.84375 -6.5625 L 5.84375 0 L 4.65625 0 L 1.75 -5.484375 L 1.75 0 L 0.890625 0 Z M 0.890625 -6.5625 "/>
</symbol>
<symbol overflow="visible" id="glyph0-2">
<path style="stroke:none;" d="M 0.890625 -6.5625 L 1.765625 -6.5625 L 1.765625 -3.875 L 5 -3.875 L 5 -6.5625 L 5.890625 -6.5625 L 5.890625 0 L 5 0 L 5 -3.125 L 1.765625 -3.125 L 1.765625 0 L 0.890625 0 Z M 0.890625 -6.5625 "/>
</symbol>
<symbol overflow="visible" id="glyph0-3">
<path style="stroke:none;" d="M 0.890625 -6.5625 L 4.65625 -6.5625 L 4.65625 -5.8125 L 1.765625 -5.8125 L 1.765625 -3.875 L 4.375 -3.875 L 4.375 -3.140625 L 1.765625 -3.140625 L 1.765625 0 L 0.890625 0 Z M 0.890625 -6.5625 "/>
</symbol>
</g>
</defs>
<g id="surface54165">
<rect x="0" y="0" width="300" height="300" style="fill:rgb(100%,100%,100%);fill-opacity:1;stroke:none;"/>
<path style="fill:none;stroke-width:1.2;stroke-linecap:butt;stroke-linejoin:miter;stroke:rgb(0%,0%,0%);stroke-opacity:1;stroke-miterlimit:10;" d="M 264.75 172.070312 L 240.265625 166.789062 "/>
<path style="fill:none;stroke-width:1.2;stroke-linecap:butt;stroke-linejoin:miter;stroke:rgb(0%,0%,0%);stroke-opacity:1;stroke-miterlimit:10;" d="M 240.265625 166.789062 L 223.453125 185.355469 "/>
<path style="fill:none;stroke-width:1.2;stroke-linecap:butt;stroke-linejoin:miter;stroke:rgb(0%,0%,0%);stroke-opacity:1;stroke-miterlimit:10;" d="M 234.214844 164.691406 L 220.765625 179.542969 "/>
<path style="fill:none;stroke-width:1.2;stroke-linecap:butt;stroke-linejoin:miter;stroke:rgb(0%,0%,100%);stroke-opacity:1;stroke-miterlimit:10;" d="M 232.59375 142.945312 L 236.429688 154.867188 "/>
<path style="fill:none;stroke-width:1.2;stroke-linecap:butt;stroke-linejoin:miter;stroke:rgb(0%,0%,0%);stroke-opacity:1;stroke-miterlimit:10;" d="M 236.429688 154.867188 L 240.265625 166.789062 "/>
<path style="fill:none;stroke-width:1.2;stroke-linecap:butt;stroke-linejoin:miter;stroke:rgb(0%,0%,0%);stroke-opacity:1;stroke-miterlimit:10;" d="M 223.453125 185.355469 L 211.210938 182.714844 "/>
<path style="fill:none;stroke-width:1.2;stroke-linecap:butt;stroke-linejoin:miter;stroke:rgb(0%,0%,100%);stroke-opacity:1;stroke-miterlimit:10;" d="M 211.210938 182.714844 L 198.96875 180.074219 "/>
<path style="fill:none;stroke-width:1.2;stroke-linecap:butt;stroke-linejoin:miter;stroke:rgb(0%,0%,100%);stroke-opacity:1;stroke-miterlimit:10;" d="M 198.96875 180.074219 L 195.132812 168.15625 "/>
<path style="fill:none;stroke-width:1.2;stroke-linecap:butt;stroke-linejoin:miter;stroke:rgb(0%,0%,0%);stroke-opacity:1;stroke-miterlimit:10;" d="M 195.132812 168.15625 L 191.296875 156.234375 "/>
<path style="fill:none;stroke-width:1.2;stroke-linecap:butt;stroke-linejoin:miter;stroke:rgb(0%,0%,100%);stroke-opacity:1;stroke-miterlimit:10;" d="M 203.8125 175.886719 L 200.742188 166.347656 "/>
<path style="fill:none;stroke-width:1.2;stroke-linecap:butt;stroke-linejoin:miter;stroke:rgb(0%,0%,0%);stroke-opacity:1;stroke-miterlimit:10;" d="M 200.742188 166.347656 L 197.675781 156.8125 "/>
<path style=" stroke:none;fill-rule:nonzero;fill:rgb(100%,100%,100%);fill-opacity:1;" d="M 195.96875 174.574219 L 202.96875 174.574219 L 202.96875 185.574219 L 195.96875 185.574219 Z M 195.96875 174.574219 "/>
<g style="fill:rgb(0%,0%,100%);fill-opacity:1;">
  <use xlink:href="#glyph0-1" x="195.96875" y="183.237305"/>
</g>
<path style="fill:none;stroke-width:1.2;stroke-linecap:butt;stroke-linejoin:miter;stroke:rgb(0%,0%,0%);stroke-opacity:1;stroke-miterlimit:10;" d="M 191.296875 156.234375 L 208.109375 137.667969 "/>
<path style="fill:none;stroke-width:1.2;stroke-linecap:butt;stroke-linejoin:miter;stroke:rgb(0%,0%,0%);stroke-opacity:1;stroke-miterlimit:10;" d="M 191.296875 156.234375 L 166.8125 150.953125 "/>
<path style="fill:none;stroke-width:1.2;stroke-linecap:butt;stroke-linejoin:miter;stroke:rgb(0%,0%,0%);stroke-opacity:1;stroke-miterlimit:10;" d="M 208.109375 137.667969 L 220.351562 140.308594 "/>
<path style="fill:none;stroke-width:1.2;stroke-linecap:butt;stroke-linejoin:miter;stroke:rgb(0%,0%,100%);stroke-opacity:1;stroke-miterlimit:10;" d="M 220.351562 140.308594 L 232.59375 142.945312 "/>
<path style="fill:none;stroke-width:1.2;stroke-linecap:butt;stroke-linejoin:miter;stroke:rgb(0%,0%,0%);stroke-opacity:1;stroke-miterlimit:10;" d="M 209.316406 143.957031 L 219.109375 146.070312 "/>
<path style="fill:none;stroke-width:1.2;stroke-linecap:butt;stroke-linejoin:miter;stroke:rgb(0%,0%,100%);stroke-opacity:1;stroke-miterlimit:10;" d="M 219.109375 146.070312 L 228.90625 148.179688 "/>
<path style=" stroke:none;fill-rule:nonzero;fill:rgb(100%,100%,100%);fill-opacity:1;" d="M 229.59375 137.445312 L 236.59375 137.445312 L 236.59375 148.445312 L 229.59375 148.445312 Z M 229.59375 137.445312 "/>
<g style="fill:rgb(0%,0%,100%);fill-opacity:1;">
  <use xlink:href="#glyph0-1" x="229.59375" y="146.108398"/>
</g>
<path style="fill:none;stroke-width:1.2;stroke-linecap:butt;stroke-linejoin:miter;stroke:rgb(0%,0%,0%);stroke-opacity:1;stroke-miterlimit:10;" d="M 166.8125 150.953125 L 162.976562 139.03125 "/>
<path style="fill:none;stroke-width:1.2;stroke-linecap:butt;stroke-linejoin:miter;stroke:rgb(0%,0%,100%);stroke-opacity:1;stroke-miterlimit:10;" d="M 162.976562 139.03125 L 159.144531 127.109375 "/>
<path style="fill:none;stroke-width:1.2;stroke-linecap:butt;stroke-linejoin:miter;stroke:rgb(0%,0%,100%);stroke-opacity:1;stroke-miterlimit:10;" d="M 159.144531 127.109375 L 146.902344 124.472656 "/>
<path style="fill:none;stroke-width:1.2;stroke-linecap:butt;stroke-linejoin:miter;stroke:rgb(0%,0%,0%);stroke-opacity:1;stroke-miterlimit:10;" d="M 146.902344 124.472656 L 134.660156 121.832031 "/>
<path style=" stroke:none;fill-rule:nonzero;fill:rgb(100%,100%,100%);fill-opacity:1;" d="M 152.144531 121.609375 L 166.144531 121.609375 L 166.144531 132.609375 L 152.144531 132.609375 Z M 152.144531 121.609375 "/>
<g style="fill:rgb(0%,0%,100%);fill-opacity:1;">
  <use xlink:href="#glyph0-1" x="152.144531" y="130.272461"/>
  <use xlink:href="#glyph0-2" x="159.12207" y="130.272461"/>
</g>
<path style="fill:none;stroke-width:1.2;stroke-linecap:butt;stroke-linejoin:miter;stroke:rgb(0%,0%,0%);stroke-opacity:1;stroke-miterlimit:10;" d="M 134.660156 121.832031 L 130.824219 109.910156 "/>
<path style="fill:none;stroke-width:1.2;stroke-linecap:butt;stroke-linejoin:miter;stroke:rgb(0%,0%,100%);stroke-opacity:1;stroke-miterlimit:10;" d="M 130.824219 109.910156 L 126.988281 97.988281 "/>
<path style="fill:none;stroke-width:1.2;stroke-linecap:butt;stroke-linejoin:miter;stroke:rgb(0%,0%,0%);stroke-opacity:1;stroke-miterlimit:10;" d="M 128.28125 121.253906 L 125.214844 111.714844 "/>
<path style="fill:none;stroke-width:1.2;stroke-linecap:butt;stroke-linejoin:miter;stroke:rgb(0%,0%,100%);stroke-opacity:1;stroke-miterlimit:10;" d="M 125.214844 111.714844 L 122.144531 102.179688 "/>
<path style="fill:none;stroke-width:1.2;stroke-linecap:butt;stroke-linejoin:miter;stroke:rgb(0%,0%,0%);stroke-opacity:1;stroke-miterlimit:10;" d="M 117.84375 140.398438 L 134.660156 121.832031 "/>
<path style="fill:none;stroke-width:1.2;stroke-linecap:butt;stroke-linejoin:miter;stroke:rgb(0%,0%,100%);stroke-opacity:1;stroke-miterlimit:10;" d="M 126.988281 97.988281 L 114.746094 95.351562 "/>
<path style="fill:none;stroke-width:1.2;stroke-linecap:butt;stroke-linejoin:miter;stroke:rgb(0%,0%,0%);stroke-opacity:1;stroke-miterlimit:10;" d="M 114.746094 95.351562 L 102.503906 92.710938 "/>
<path style=" stroke:none;fill-rule:nonzero;fill:rgb(100%,100%,100%);fill-opacity:1;" d="M 123.988281 92.488281 L 130.988281 92.488281 L 130.988281 103.488281 L 123.988281 103.488281 Z M 123.988281 92.488281 "/>
<g style="fill:rgb(0%,0%,100%);fill-opacity:1;">
  <use xlink:href="#glyph0-1" x="123.988281" y="101.151367"/>
</g>
<path style="fill:none;stroke-width:1.2;stroke-linecap:butt;stroke-linejoin:miter;stroke:rgb(0%,0%,0%);stroke-opacity:1;stroke-miterlimit:10;" d="M 102.503906 92.710938 L 94.097656 101.992188 "/>
<path style="fill:none;stroke-width:1.2;stroke-linecap:butt;stroke-linejoin:miter;stroke:rgb(0%,0%,100%);stroke-opacity:1;stroke-miterlimit:10;" d="M 94.097656 101.992188 L 85.691406 111.277344 "/>
<path style="fill:none;stroke-width:1.2;stroke-linecap:butt;stroke-linejoin:miter;stroke:rgb(0%,0%,0%);stroke-opacity:1;stroke-miterlimit:10;" d="M 105.191406 98.523438 L 98.464844 105.949219 "/>
<path style="fill:none;stroke-width:1.2;stroke-linecap:butt;stroke-linejoin:miter;stroke:rgb(0%,0%,100%);stroke-opacity:1;stroke-miterlimit:10;" d="M 98.464844 105.949219 L 91.738281 113.375 "/>
<path style="fill:none;stroke-width:1.2;stroke-linecap:butt;stroke-linejoin:miter;stroke:rgb(0%,0%,100%);stroke-opacity:1;stroke-miterlimit:10;" d="M 85.691406 111.277344 L 89.527344 123.195312 "/>
<path style="fill:none;stroke-width:1.2;stroke-linecap:butt;stroke-linejoin:miter;stroke:rgb(0%,0%,0%);stroke-opacity:1;stroke-miterlimit:10;" d="M 89.527344 123.195312 L 93.359375 135.117188 "/>
<path style=" stroke:none;fill-rule:nonzero;fill:rgb(100%,100%,100%);fill-opacity:1;" d="M 82.691406 105.777344 L 89.691406 105.777344 L 89.691406 116.777344 L 82.691406 116.777344 Z M 82.691406 105.777344 "/>
<g style="fill:rgb(0%,0%,100%);fill-opacity:1;">
  <use xlink:href="#glyph0-1" x="82.691406" y="114.44043"/>
</g>
<path style="fill:none;stroke-width:1.2;stroke-linecap:butt;stroke-linejoin:miter;stroke:rgb(0%,0%,0%);stroke-opacity:1;stroke-miterlimit:10;" d="M 93.359375 135.117188 L 117.84375 140.398438 "/>
<path style="fill:none;stroke-width:1.2;stroke-linecap:butt;stroke-linejoin:miter;stroke:rgb(0%,0%,0%);stroke-opacity:1;stroke-miterlimit:10;" d="M 97.050781 129.886719 L 116.640625 134.109375 "/>
<path style="fill:none;stroke-width:1.2;stroke-linecap:butt;stroke-linejoin:miter;stroke:rgb(0%,0%,0%);stroke-opacity:1;stroke-miterlimit:10;" d="M 93.359375 135.117188 L 76.546875 153.683594 "/>
<path style="fill:none;stroke-width:1.2;stroke-linecap:butt;stroke-linejoin:miter;stroke:rgb(0%,0%,0%);stroke-opacity:1;stroke-miterlimit:10;" d="M 76.546875 153.683594 L 52.0625 148.40625 "/>
<path style="fill:none;stroke-width:1.2;stroke-linecap:butt;stroke-linejoin:miter;stroke:rgb(0%,0%,0%);stroke-opacity:1;stroke-miterlimit:10;" d="M 72.855469 158.917969 L 53.269531 154.695312 "/>
<path style="fill:none;stroke-width:1.2;stroke-linecap:butt;stroke-linejoin:miter;stroke:rgb(0%,0%,0%);stroke-opacity:1;stroke-miterlimit:10;" d="M 84.21875 177.527344 L 76.546875 153.683594 "/>
<path style="fill:none;stroke-width:1.2;stroke-linecap:butt;stroke-linejoin:miter;stroke:rgb(0%,0%,0%);stroke-opacity:1;stroke-miterlimit:10;" d="M 52.0625 148.40625 L 35.25 166.96875 "/>
<path style="fill:none;stroke-width:1.2;stroke-linecap:butt;stroke-linejoin:miter;stroke:rgb(0%,0%,0%);stroke-opacity:1;stroke-miterlimit:10;" d="M 35.25 166.96875 L 42.921875 190.8125 "/>
<path style="fill:none;stroke-width:1.2;stroke-linecap:butt;stroke-linejoin:miter;stroke:rgb(0%,0%,0%);stroke-opacity:1;stroke-miterlimit:10;" d="M 41.628906 167.546875 L 47.765625 186.625 "/>
<path style="fill:none;stroke-width:1.2;stroke-linecap:butt;stroke-linejoin:miter;stroke:rgb(0%,0%,0%);stroke-opacity:1;stroke-miterlimit:10;" d="M 42.921875 190.8125 L 67.40625 196.089844 "/>
<path style="fill:none;stroke-width:1.2;stroke-linecap:butt;stroke-linejoin:miter;stroke:rgb(0%,0%,0%);stroke-opacity:1;stroke-miterlimit:10;" d="M 67.40625 196.089844 L 84.21875 177.527344 "/>
<path style="fill:none;stroke-width:1.2;stroke-linecap:butt;stroke-linejoin:miter;stroke:rgb(0%,0%,0%);stroke-opacity:1;stroke-miterlimit:10;" d="M 64.71875 190.277344 L 78.167969 175.425781 "/>
<path style="fill:none;stroke-width:1.2;stroke-linecap:butt;stroke-linejoin:miter;stroke:rgb(0%,0%,0%);stroke-opacity:1;stroke-miterlimit:10;" d="M 84.21875 177.527344 L 108.703125 182.804688 "/>
<path style="fill:none;stroke-width:1.2;stroke-linecap:butt;stroke-linejoin:miter;stroke:rgb(0%,0%,0%);stroke-opacity:1;stroke-miterlimit:10;" d="M 108.703125 182.804688 L 120.945312 185.445312 "/>
<path style="fill:none;stroke-width:1.2;stroke-linecap:butt;stroke-linejoin:miter;stroke:rgb(20%,80%,80%);stroke-opacity:1;stroke-miterlimit:10;" d="M 120.945312 185.445312 L 133.1875 188.082031 "/>
<path style="fill:none;stroke-width:1.2;stroke-linecap:butt;stroke-linejoin:miter;stroke:rgb(0%,0%,0%);stroke-opacity:1;stroke-miterlimit:10;" d="M 108.703125 182.804688 L 106.0625 195.046875 "/>
<path style="fill:none;stroke-width:1.2;stroke-linecap:butt;stroke-linejoin:miter;stroke:rgb(20%,80%,80%);stroke-opacity:1;stroke-miterlimit:10;" d="M 106.0625 195.046875 L 103.425781 207.289062 "/>
<path style="fill:none;stroke-width:1.2;stroke-linecap:butt;stroke-linejoin:miter;stroke:rgb(0%,0%,0%);stroke-opacity:1;stroke-miterlimit:10;" d="M 108.703125 182.804688 L 111.339844 170.5625 "/>
<path style="fill:none;stroke-width:1.2;stroke-linecap:butt;stroke-linejoin:miter;stroke:rgb(20%,80%,80%);stroke-opacity:1;stroke-miterlimit:10;" d="M 111.339844 170.5625 L 113.980469 158.320312 "/>
<path style=" stroke:none;fill-rule:nonzero;fill:rgb(100%,100%,100%);fill-opacity:1;" d="M 130.1875 182.582031 L 136.1875 182.582031 L 136.1875 193.582031 L 130.1875 193.582031 Z M 130.1875 182.582031 "/>
<g style="fill:rgb(20%,80%,80%);fill-opacity:1;">
  <use xlink:href="#glyph0-3" x="130.1875" y="191.245117"/>
</g>
<path style=" stroke:none;fill-rule:nonzero;fill:rgb(100%,100%,100%);fill-opacity:1;" d="M 100.425781 201.789062 L 106.425781 201.789062 L 106.425781 212.789062 L 100.425781 212.789062 Z M 100.425781 201.789062 "/>
<g style="fill:rgb(20%,80%,80%);fill-opacity:1;">
  <use xlink:href="#glyph0-3" x="100.425781" y="210.452148"/>
</g>
<path style=" stroke:none;fill-rule:nonzero;fill:rgb(100%,100%,100%);fill-opacity:1;" d="M 110.980469 152.820312 L 116.980469 152.820312 L 116.980469 163.820312 L 110.980469 163.820312 Z M 110.980469 152.820312 "/>
<g style="fill:rgb(20%,80%,80%);fill-opacity:1;">
  <use xlink:href="#glyph0-3" x="110.980469" y="161.483398"/>
</g>
</g>
</svg>

<svg xmlns="http://www.w3.org/2000/svg" xmlns:xlink="http://www.w3.org/1999/xlink" width="300pt" height="300pt" viewBox="0 0 300 300"><defs><symbol overflow="visible"><path d="M.453 1.594v-7.938h4.5v7.938zm.5-.5h3.5v-6.938h-3.5zm0 0"/></symbol><symbol overflow="visible" id="a"><path d="M.89-6.563H2.08l2.906 5.485v-5.484h.86V0H4.656L1.75-5.484V0H.89zm0 0"/></symbol><symbol overflow="visible" id="b"><path d="M.89-6.563h.876v2.688H5v-2.688h.89V0H5v-3.125H1.766V0H.89zm0 0"/></symbol><symbol overflow="visible" id="c"><path d="M.89-6.563h3.766v.75h-2.89v1.938h2.61v.734h-2.61V0H.89zm0 0"/></symbol></defs><g><path fill="#fff" d="M0 0h300v300H0z"/><path d="M264.75 172.07l-24.484-5.28M240.266 166.79l-16.813 18.565M234.215 164.69l-13.45 14.853" stroke-width="1.2" stroke="#000" stroke-miterlimit="10" fill="none"/><path d="M232.594 142.945l3.836 11.922" stroke-width="1.2" stroke="#00f" stroke-miterlimit="10" fill="none"/><path d="M236.43 154.867l3.836 11.922M223.453 185.355l-12.242-2.64" stroke-width="1.2" stroke="#000" stroke-miterlimit="10" fill="none"/><path d="M211.21 182.715l-12.24-2.64M198.97 180.074l-3.837-11.918" stroke-width="1.2" stroke="#00f" stroke-miterlimit="10" fill="none"/><path d="M195.133 168.156l-3.836-11.922" stroke-width="1.2" stroke="#000" stroke-miterlimit="10" fill="none"/><path d="M203.813 175.887l-3.07-9.54" stroke-width="1.2" stroke="#00f" stroke-miterlimit="10" fill="none"/><path d="M200.742 166.348l-3.066-9.536" stroke-width="1.2" stroke="#000" stroke-miterlimit="10" fill="none"/><path d="M195.97 174.574h7v11h-7zm0 0" fill="#fff"/><use xlink:href="#a" x="195.969" y="183.237" fill="#00f"/><path d="M191.297 156.234l16.812-18.566M191.297 156.234l-24.484-5.28M208.11 137.668l12.242 2.64" stroke-width="1.2" stroke="#000" stroke-miterlimit="10" fill="none"/><path d="M220.352 140.31l12.242 2.635" stroke-width="1.2" stroke="#00f" stroke-miterlimit="10" fill="none"/><path d="M209.316 143.957l9.793 2.113" stroke-width="1.2" stroke="#000" stroke-miterlimit="10" fill="none"/><path d="M219.11 146.07l9.796 2.11" stroke-width="1.2" stroke="#00f" stroke-miterlimit="10" fill="none"/><path d="M229.594 137.445h7v11h-7zm0 0" fill="#fff"/><use xlink:href="#a" x="229.594" y="146.108" fill="#00f"/><path d="M166.813 150.953l-3.836-11.922" stroke-width="1.2" stroke="#000" stroke-miterlimit="10" fill="none"/><path d="M162.977 139.03l-3.832-11.92M159.145 127.11l-12.243-2.637" stroke-width="1.2" stroke="#00f" stroke-miterlimit="10" fill="none"/><path d="M146.902 124.473l-12.242-2.64" stroke-width="1.2" stroke="#000" stroke-miterlimit="10" fill="none"/><path d="M152.145 121.61h14v11h-14zm0 0" fill="#fff"/><g fill="#00f"><use xlink:href="#a" x="152.145" y="130.272"/><use xlink:href="#b" x="159.122" y="130.272"/></g><path d="M134.66 121.832l-3.836-11.922" stroke-width="1.2" stroke="#000" stroke-miterlimit="10" fill="none"/><path d="M130.824 109.91l-3.836-11.922" stroke-width="1.2" stroke="#00f" stroke-miterlimit="10" fill="none"/><path d="M128.28 121.254l-3.065-9.54" stroke-width="1.2" stroke="#000" stroke-miterlimit="10" fill="none"/><path d="M125.215 111.715l-3.07-9.535" stroke-width="1.2" stroke="#00f" stroke-miterlimit="10" fill="none"/><path d="M117.844 140.398l16.816-18.566" stroke-width="1.2" stroke="#000" stroke-miterlimit="10" fill="none"/><path d="M126.988 97.988l-12.242-2.636" stroke-width="1.2" stroke="#00f" stroke-miterlimit="10" fill="none"/><path d="M114.746 95.352l-12.242-2.64" stroke-width="1.2" stroke="#000" stroke-miterlimit="10" fill="none"/><path d="M123.988 92.488h7v11h-7zm0 0" fill="#fff"/><use xlink:href="#a" x="123.988" y="101.151" fill="#00f"/><path d="M102.504 92.71l-8.406 9.282" stroke-width="1.2" stroke="#000" stroke-miterlimit="10" fill="none"/><path d="M94.098 101.992l-8.407 9.285" stroke-width="1.2" stroke="#00f" stroke-miterlimit="10" fill="none"/><path d="M105.19 98.523l-6.725 7.426" stroke-width="1.2" stroke="#000" stroke-miterlimit="10" fill="none"/><path d="M98.465 105.95l-6.727 7.425M85.69 111.277l3.837 11.918" stroke-width="1.2" stroke="#00f" stroke-miterlimit="10" fill="none"/><path d="M89.527 123.195l3.832 11.922" stroke-width="1.2" stroke="#000" stroke-miterlimit="10" fill="none"/><path d="M82.69 105.777h7v11h-7zm0 0" fill="#fff"/><use xlink:href="#a" x="82.691" y="114.44" fill="#00f"/><path d="M93.36 135.117l24.484 5.28M97.05 129.887l19.59 4.222M93.36 135.117l-16.813 18.567M76.547 153.684l-24.484-5.278M72.855 158.918l-19.585-4.223M84.22 177.527l-7.673-23.843M52.063 148.406L35.25 166.97M35.25 166.97l7.672 23.843M41.63 167.547l6.136 19.078M42.922 190.813l24.484 5.277M67.406 196.09l16.813-18.563M64.72 190.277l13.448-14.85M84.22 177.527l24.483 5.278M108.703 182.805l12.242 2.64" stroke-width="1.2" stroke="#000" stroke-miterlimit="10" fill="none"/><path d="M120.945 185.445l12.243 2.637" stroke-width="1.2" stroke="#3cc" stroke-miterlimit="10" fill="none"/><path d="M108.703 182.805l-2.64 12.242" stroke-width="1.2" stroke="#000" stroke-miterlimit="10" fill="none"/><path d="M106.063 195.047l-2.637 12.242" stroke-width="1.2" stroke="#3cc" stroke-miterlimit="10" fill="none"/><path d="M108.703 182.805l2.637-12.243" stroke-width="1.2" stroke="#000" stroke-miterlimit="10" fill="none"/><path d="M111.34 170.563l2.64-12.243" stroke-width="1.2" stroke="#3cc" stroke-miterlimit="10" fill="none"/><path d="M130.188 182.582h6v11h-6zm0 0" fill="#fff"/><use xlink:href="#c" x="130.188" y="191.245" fill="#3cc"/><path d="M100.426 201.79h6v11h-6zm0 0" fill="#fff"/><use xlink:href="#c" x="100.426" y="210.452" fill="#3cc"/><path d="M110.98 152.82h6v11h-6zm0 0" fill="#fff"/><use xlink:href="#c" x="110.98" y="161.483" fill="#3cc"/></g></svg>
